X: 15582
T: Glountanefinnane, The
R: jig
M: 6/8
K: Gmajor
|:e|dBB BAB|cAA f2e|dGG GFG|EAG FED|
dBB ~B3|cAA ABc|ded cAF|AGG G2:|
|:A|Bee efg|aee fed|Bdd def|~g2g fed|
Bee efg|aee fge|Bdd gdc|BGG G2:|

